svgs/thin/venus-double.svg

<svg xmlns="http://www.w3.org/2000/svg" viewBox="0 0 640 512"><!--! Font Awesome Pro 6.0.0-alpha3 by @fontawesome - https://fontawesome.com License - https://fontawesome.com/license (Commercial License) --><path d="M368 176c0-97.2-78.8-176-176-176s-176 78.8-176 176c0 94.5 74.54 171.4 168 175.6V408h-80C99.59 408 96 411.6 96 416s3.594 8 8 8h80v80C184 508.4 187.6 512 192 512s8-3.594 8-8v-80h80C284.4 424 288 420.4 288 416s-3.594-8-8-8h-80v-56.4C293.5 347.4 368 270.5 368 176zM192 336c-88.22 0-160-71.78-160-160s71.78-160 160-160s160 71.78 160 160S280.2 336 192 336zM624 176C624 78.97 545 0 448 0c-36.22 0-71 10.91-100.6 31.56c-3.594 2.531-4.5 7.531-1.969 11.16s7.5 4.469 11.16 1.969C383.5 25.91 415.1 16 448 16c88.22 0 160 71.78 160 160s-71.78 160-160 160c-32.94 0-64.53-9.906-91.41-28.69c-3.656-2.531-8.625-1.656-11.16 1.969s-1.625 8.625 1.969 11.16c27.39 19.12 59.29 29.46 92.59 30.96V408h-80C355.6 408 352 411.6 352 416s3.594 8 8 8h80v80c0 4.406 3.594 8 8 8s8-3.594 8-8v-80h80c4.406 0 8-3.594 8-8s-3.594-8-8-8h-80v-56.4C549.3 347.4 624 270.3 624 176z"/></svg>

<svg xmlns="http://www.w3.org/2000/svg" viewBox="0 0 640 512"><!-- Font Awesome Pro 6.0.0-alpha2 by @fontawesome - https://fontawesome.com License - https://fontawesome.com/license (Commercial License) --><path d="M368 176C368 78.799 289.201 0 192 0S16 78.799 16 176C16 270.5 90.541 347.385 184 351.596V408H104C99.594 408 96 411.594 96 416S99.594 424 104 424H184V504C184 508.406 187.594 512 192 512S200 508.406 200 504V424H280C284.406 424 288 420.406 288 416S284.406 408 280 408H200V351.596C293.459 347.385 368 270.5 368 176ZM192 336C103.775 336 32 264.225 32 176S103.775 16 192 16S352 87.775 352 176S280.225 336 192 336ZM624 176C624 78.969 545.031 0 448 0C411.781 0 377 10.906 347.406 31.562C343.812 34.094 342.906 39.094 345.438 42.719S352.938 47.187 356.594 44.687C383.469 25.906 415.062 16 448 16C536.219 16 608 87.781 608 176S536.219 336 448 336C415.062 336 383.469 326.094 356.594 307.312C352.938 304.781 347.969 305.656 345.438 309.281S343.813 317.906 347.406 320.437C374.795 339.555 406.699 349.898 440 351.396V408H360C355.594 408 352 411.594 352 416S355.594 424 360 424H440V504C440 508.406 443.594 512 448 512S456 508.406 456 504V424H536C540.406 424 544 420.406 544 416S540.406 408 536 408H456V351.596C549.307 347.369 624 270.33 624 176Z"/></svg>
